X: 1
T: Boring the Leather
O: Early New England
B: NEFR
R: jig
Z: 2007 John Chambers <jc:trillian.mit.edu>
M: 6/8
L: 1/8
K: G
|: GEE GAB | dBB cBA | GEE GAB | dBG A2B \
|  GEE GAB | dBG ABd | gfg e{f}ge | dBG A2G :|
|: dBB gfg | dBB d2g | dBb gfg | dBG A2B \
|  dBB geg | aga b2a | gfg ege | dBG A2B :|
